X:1
T:French Suite VI Gigue
T:BWV 817
T:J. S. Bach
%%score { 1 | 2 }
L:1/8
M:6/8
K:E
V:1 treble nm="Harp"
V:2 bass 
V:1
 B | eBG EGF | G3- G2 A | BA/G/F/E/ c/B/A/G/F/E/ | DE/D/C/B,/ A3- | A/G/F/G/A/B/ cBA | %6
 G/F/E/F/G/A/ B/A/G/A/B/c/ | dBe Fed | e3- e2 g | a/g/f/e/d/c/ ^B/d/g/f/e/d/ | %10
 e/f/e/d/c/B/ ^A/c/f/e/d/c/ | d/e/d/c/B/A/ G/B/e/d/c/B/ | ^A/G/F/G/A/B/ c/B/A/B/c/d/ | %13
 e/d/c/d/e/f/ g/f/e/f/g/^a/ | b/^a/g/f/e/d/ g/f/e/d/c/B/ | ^A/c/e/g/f- fe/d/c/B/ | %16
 B/d/f/b/f/d/ B/d/f/b/f/d/ | B6- | B/=d/^e/g/e/d/ B/d/e/g/e/B/ | ^A/F/G/A/B/c/ d3- | %20
 d/G/^A/B/c/d/ e3- | e/G/F/E/D/E/ ^A/G/F/E/D/E/ | B/G/F/E/D/E/ c/G/F/E/D/E/ | d/c/B/c/d/e/ fB^A | %24
 B3- B2 B | eBG EGF | G3- G2 A | BA/G/F/E/ c/B/A/G/F/E/ | DE/D/C/B,/ A3- | A/G/F/G/A/B/ cBA | %30
 G/F/E/F/G/A/ B/A/G/A/B/c/ | dBe Fed | e3- e2 g | a/g/f/e/d/c/ ^B/d/g/f/e/d/ | %34
 e/f/e/d/c/B/ ^A/c/f/e/d/c/ | d/e/d/c/B/A/ G/B/e/d/c/B/ | ^A/G/F/G/A/B/ c/B/A/B/c/d/ | %37
 e/d/c/d/e/f/ g/f/e/f/g/^a/ | b/^a/g/f/e/d/ g/f/e/d/c/B/ | ^A/c/e/g/f- fe/d/c/B/ | %40
 B/d/f/b/f/d/ B/d/f/b/f/d/ | B6- | B/=d/^e/g/e/d/ B/d/e/g/e/B/ | ^A/F/G/A/B/c/ d3- | %44
 d/G/^A/B/c/d/ e3- | e/G/F/E/D/E/ ^A/G/F/E/D/E/ | B/G/F/E/D/E/ c/G/F/E/D/E/ | d/c/B/c/d/e/ fB^A | %48
 B3- B2 f | Bdf bga | g3- g2 g | a/g/a/b/a/g/ f/^e/f/g/a/f/ | g/f/g/a/b/g/ ^ece | %53
 g/4f/4g/4f/4g/4f/4g/4f/4g/4f/4g/4f/4 g/4f/4g/4f/4g/4f/4g/4f/4g/4f/4g/4f/4 | %54
 g/4f/4g/4f/4g/4f/4g/4f/4g/4f/4g/4f/4 g/4f/4a/g/f/^e/f/ | B/=d/c/B/^A/B/ ^e/d/c/B/A/B/ | %56
 f/=d/c/B/^A/B/ g/d/c/B/=A/G/ | A/G/F/G/A/B/ cF^E | F3- F2 A | %59
 B/4A/4B/4A/4B/4A/4B/4A/4B/4A/4B/4A/4 B/4A/4B/4A/4B/4A/4B/4A/4B/4A/4B/4A/4 | %60
 B/4A/4B/4A/4B/4A/4B/4A/4B/4A/4B/4A/4 B/4A/4B/4A/4B/4A/4c/B/A/ | G/F/E/F/G/A/ B/A/G/A/B/c/ | %62
 =d>fe/d/ c/B/A/B/c/^d/ | e/d/e/g/f/e/ d/c/B/c/d/e/ | f/e/d/e/f/g/ a3- | a/B/c/d/e/f/ g3- | %66
 g/A/B/c/d/e/ f/e/d/c/B/A/ | G/e/d/c/B/A/ GAF | E/G/B/e/B/G/ E/G/B/e/B/G/ | E6- | %70
 E/=G/^A/c/A/G/ E/G/A/c/A/G/ | e/d/c/B/a/g/ f/e/b/a/g/f/ | e3- e2 f | Bdf bga | g3- g2 g | %75
 a/g/a/b/a/g/ f/^e/f/g/a/f/ | g/f/g/a/b/g/ ^ece | %77
 g/4f/4g/4f/4g/4f/4g/4f/4g/4f/4g/4f/4 g/4f/4g/4f/4g/4f/4g/4f/4g/4f/4g/4f/4 | %78
 g/4f/4g/4f/4g/4f/4g/4f/4g/4f/4g/4f/4 g/4f/4a/g/f/^e/f/ | B/=d/c/B/^A/B/ ^e/d/c/B/A/B/ | %80
 f/=d/c/B/^A/B/ g/d/c/B/=A/G/ | A/G/F/G/A/B/ cF^E | F3- F2 A | %83
 B/4A/4B/4A/4B/4A/4B/4A/4B/4A/4B/4A/4 B/4A/4B/4A/4B/4A/4B/4A/4B/4A/4B/4A/4 | %84
 B/4A/4B/4A/4B/4A/4B/4A/4B/4A/4B/4A/4 B/4A/4B/4A/4B/4A/4c/B/A/ | G/F/E/F/G/A/ B/A/G/A/B/c/ | %86
 =d>fe/d/ c/B/A/B/c/^d/ | e/d/e/g/f/e/ d/c/B/c/d/e/ | f/e/d/e/f/g/ a3- | a/B/c/d/e/f/ g3- | %90
 g/A/B/c/d/e/ f/e/d/c/B/A/ | G/e/d/c/B/A/ GAF | E/G/B/e/B/G/ E/G/B/e/B/G/ | E6- | %94
 E/=G/^A/c/A/G/ E/G/A/c/A/G/ | e/d/c/B/a/g/ f/e/b/a/g/f/ | !fermata!e3- e2 z |] %97
V:2
 z | z3 z z B, | EB,G, E,G,F, | G,2 z A,2 z | B,F,D, B,,D,C, | D,3- D,E,/D,/C,/B,,/ | %6
 E,B,,G,, E,,E,D, | A,G,/F,/G,/E,/ B,B,,B, | EB,G, E,G,C, | F,2 z G,^A,^B, | C,D,E, F,G,^A, | %11
 B,,C,D, E,C,E, | F,C,^A,, F,,E,D, | C,G,,E,, C,,B,,^A,, | G,,^A,,B,, E,,2 E,- | %15
 E,/G,/F,/E,/D,/C,/ B,,F,F,, | B,,2 z ^A,,2 z | G,,/B,,/D,/G,/D,/B,,/ F,,/B,,/D,/F,/D,/B,,/ | %18
 ^E,2 z C,2 z | F,3- F,/G,/^A,/B,/C/D/ | E3- E/F/E/D/C/B,/ | ^A,B,C F,2 z | G,2 z ^A,2 z | %23
 B,^A,G, D,E,F, | B,,D,F, B,2 z | z3 z z B, | EB,G, E,G,F, | G,2 z A,2 z | B,F,D, B,,D,C, | %29
 D,3- D,E,/D,/C,/B,,/ | E,B,,G,, E,,E,D, | A,G,/F,/G,/E,/ B,B,,B, | EB,G, E,G,C, | F,2 z G,^A,^B, | %34
 C,D,E, F,G,^A, | B,,C,D, E,C,E, | F,C,^A,, F,,E,D, | C,G,,E,, C,,B,,^A,, | G,,^A,,B,, E,,2 E,- | %39
 E,/G,/F,/E,/D,/C,/ B,,F,F,, | B,,2 z ^A,,2 z | G,,/B,,/D,/G,/D,/B,,/ F,,/B,,/D,/F,/D,/B,,/ | %42
 ^E,2 z C,2 z | F,3- F,/G,/^A,/B,/C/D/ | E3- E/F/E/D/C/B,/ | ^A,B,C F,2 z | G,2 z ^A,2 z | %47
 B,^A,G, D,E,F, | B,,D,F, B,2 z | z3 z z B, | E,G,B, EC=D | C2 z =D2 z | B,2 z C/B,/C/=D/C/B,/ | %53
 A,/G,/A,/B,/A,/G,/ F,/E,/F,/G,/F,/E,/ | =D,/C,/D,/E,/D,/C,/ B,,/A,,/B,,/C,/B,,/A,,/ | %55
 G,,2 z B,,2 z | =D,2 z ^E,,2 z | F,,F,=D, A,,B,,C, | F,,E/=D/C/B,/ A,/B,/C/B,/A,/G,/ | %59
 F,/G,/A,/G,/F,/E,/ D,/E,/F,/E,/D,/C,/ | B,,/C,/D,/C,/B,,/A,,/ G,,/A,,/B,,/A,,/G,,/F,,/ | %61
 E,,G,,B,, E,B,,=D, | G,/F,/E,/=D,/C,/B,,/ A,,C,E, | ^A,,C,F, B,,D,F, | A,F,A, D/C/B,/A,/G,/F,/ | %65
 E,3- E,/E,/F,/G,/A,/B,/ | C2 z D2 z | EG,A, B,A,B, | E,2 z D,2 z | %69
 C,/E,/G,/C/G,/E,/ B,,/E,/G,/B,/G,/E,/ | ^A,2 z F,2 z | B,,E,C, G,,A,,B,, | E,,G,,B,, E,2 z | %73
 z3 z z B, | E,G,B, EC=D | C2 z =D2 z | B,2 z C/B,/C/=D/C/B,/ | %77
 A,/G,/A,/B,/A,/G,/ F,/E,/F,/G,/F,/E,/ | =D,/C,/D,/E,/D,/C,/ B,,/A,,/B,,/C,/B,,/A,,/ | %79
 G,,2 z B,,2 z | =D,2 z ^E,,2 z | F,,F,=D, A,,B,,C, | F,,E/=D/C/B,/ A,/B,/C/B,/A,/G,/ | %83
 F,/G,/A,/G,/F,/E,/ D,/E,/F,/E,/D,/C,/ | B,,/C,/D,/C,/B,,/A,,/ G,,/A,,/B,,/A,,/G,,/F,,/ | %85
 E,,G,,B,, E,B,,=D, | G,/F,/E,/=D,/C,/B,,/ A,,C,E, | ^A,,C,F, B,,D,F, | A,F,A, D/C/B,/A,/G,/F,/ | %89
 E,3- E,/E,/F,/G,/A,/B,/ | C2 z D2 z | EG,A, B,A,B, | E,2 z D,2 z | %93
 C,/E,/G,/C/G,/E,/ B,,/E,/G,/B,/G,/E,/ | ^A,2 z F,2 z | B,,E,C, G,,A,,B,, | %96
 E,,G,,B,, !fermata!E,2 z |] %97

